UI/POI/SVG/fitness_outline_24px.svg

<svg width="24" height="24" viewBox="0 0 24 24" fill="none" xmlns="http://www.w3.org/2000/svg">
<path d="M21.71 10.1499L20 8.47994L20.71 7.76994C20.8038 7.67698 20.8782 7.56637 20.9289 7.44452C20.9797 7.32266 21.0058 7.19195 21.0058 7.05994C21.0058 6.92793 20.9797 6.79722 20.9289 6.67536C20.8782 6.5535 20.8038 6.4429 20.71 6.34994L19.87 5.50994L21.41 3.99994L20 2.58994L18.48 4.09994L17.65 3.26994C17.4627 3.08369 17.2092 2.97915 16.945 2.97915C16.6808 2.97915 16.4274 3.08369 16.24 3.26994L15.53 3.99994L13.85 2.28994C13.7571 2.19621 13.6465 2.12182 13.5246 2.07105C13.4027 2.02028 13.272 1.99414 13.14 1.99414C13.008 1.99414 12.8773 2.02028 12.7555 2.07105C12.6336 2.12182 12.523 2.19621 12.43 2.28994L8.90003 5.82994L12.83 9.75994L9.78003 12.8099L5.85003 8.87994L2.32003 12.4199C2.13378 12.6073 2.02924 12.8608 2.02924 13.1249C2.02924 13.3891 2.13378 13.6426 2.32003 13.8299L4.00003 15.5099L3.30003 16.2099C3.2063 16.3029 3.13191 16.4135 3.08114 16.5354C3.03037 16.6572 3.00423 16.7879 3.00423 16.9199C3.00423 17.052 3.03037 17.1827 3.08114 17.3045C3.13191 17.4264 3.2063 17.537 3.30003 17.6299L4.13003 18.4599L2.58003 19.9999L4.00003 21.4199L5.54003 19.8799L6.37003 20.7099C6.46264 20.8044 6.57309 20.8796 6.69496 20.9311C6.81684 20.9826 6.94772 21.0094 7.08003 21.0099C7.21234 21.0094 7.34322 20.9826 7.46509 20.9311C7.58697 20.8796 7.69741 20.8044 7.79003 20.7099L8.49003 20.0099L10.18 21.6899C10.3663 21.8747 10.6177 21.9788 10.88 21.9799C11.0116 21.9807 11.1421 21.9555 11.2639 21.9057C11.3858 21.8559 11.4966 21.7826 11.59 21.6899L15.13 18.1499L11.19 14.2199L14.24 11.1699L18.17 15.0999L21.71 11.5699C21.8038 11.477 21.8782 11.3664 21.9289 11.2445C21.9797 11.1227 22.0058 10.992 22.0058 10.8599C22.0058 10.7279 21.9797 10.5972 21.9289 10.4754C21.8782 10.3535 21.8038 10.2429 21.71 10.1499V10.1499ZM12.3 18.1499L10.88 19.5699L9.88003 18.5699L8.49003 17.1799L7.08003 18.5899L5.41003 16.9199L6.82003 15.5099L5.41003 14.0899L4.41003 13.0899L5.82003 11.6799L12.3 18.1499ZM18.17 12.2699L11.73 5.82994L13.14 4.40994L14.14 5.40994L15.53 6.79994L16.94 5.38994L18.62 7.05994L17.2 8.47994L18.62 9.88994L19.62 10.8899L18.17 12.2699Z" fill="#0F1621"/>
</svg>

<svg xmlns="http://www.w3.org/2000/svg" width="24" height="24" viewBox="0 0 24 24"><rect width="24" height="24" style="fill:none"/><path d="M21.71,10.15,20,8.48l.71-.71a1,1,0,0,0,0-1.42l-.84-.84L21.41,4,20,2.59,18.48,4.1l-.83-.83a1,1,0,0,0-1.41,0L15.53,4,13.85,2.29a1,1,0,0,0-1.42,0L8.9,5.83l3.93,3.93L9.78,12.81,5.85,8.88,2.32,12.42a1,1,0,0,0,0,1.41L4,15.51l-.7.7a1,1,0,0,0,0,1.42l.83.83L2.58,20,4,21.42l1.54-1.54.83.83a1,1,0,0,0,.71.3,1,1,0,0,0,.71-.3l.7-.7,1.69,1.68a1,1,0,0,0,.7.29,1,1,0,0,0,.71-.29l3.54-3.54-3.94-3.93,3.05-3.05,3.93,3.93,3.54-3.53A1,1,0,0,0,21.71,10.15Zm-9.41,8-1.42,1.42-1-1L8.49,17.18,7.08,18.59,5.41,16.92l1.41-1.41L5.41,14.09l-1-1,1.41-1.41Zm5.87-5.88L11.73,5.83l1.41-1.42,1,1L15.53,6.8l1.41-1.41,1.68,1.67L17.2,8.48l1.42,1.41,1,1Z"/></svg>
